X:1
T: Miss Margaret Anderson
C:Muriel A Johnstone
R:Strathspey
%Q: 128
K:A
M:4/4
L:1/16
((3EFG) |A4 A3B ce3 e4|a3g f3e fa3 a4|e3d c3A df3 f4|B3c B3A Ge3 e2 ((3EFG)|
A4 A3B ce3 e4|a3g f3e fa3 a4|e3d c3A df3 f4|((3BGE) ((3EFG) A6g2|
a3A c3e aA3 c3e|d3b c3a bB3 B2 ((3efg) |a3A c3e aA3 c3e|((3dBG) ((3EFG) AA,3 A,2 ((3efg)|
a3A c3e aA3 c3e|d4 d'3c' ((3bc'a) ((3gfe) |f3d' e3c' d3b c3a|((3Bbg) ((3efg) aA3 A2:|
